X:1
T:Heathlands, 77.77.77
T:Heathlands, 77.77.77
T:Henry Thomas Smart, 1866
T:Public Domain Courtesy of the Cyber Hymnal™
C:Henry Thomas Smart, 1866
Z:Public Domain
Z:Courtesy of the Cyber Hymnal™
%%score ( 1 2 ) ( 3 4 )
L:1/8
Q:1/4=110
M:4/4
K:Eb
V:1 treble 
V:2 treble 
V:3 bass 
V:4 bass 
V:1
 [EB]2 [Ge]2 [Fd]2 B2 | [Ec]2 [Ec]2 [EB]4 | [EA]2 F2 [EG]2 [EA]2 | [EB]2 ([FA][EG]) [DF]4 | %4
 [FB]2 [DB]2 G2 [FB]2 | [Ee]2 [Fd]2 [Fc]4 | [Ff]2 [Fc]2 [Fd]2 (cB) | [Gc]2 [F=A]2 [FB]4 | %8
 [GB]2 [DB]2 [Ec]2 [Ec]2 | [Ad]2 d2 [Ee]4 | [Ec]2 [EB]2 [EA]2 [EG]2 | [EF]2 [DF]2 E4 |] %12
V:2
 x6 (GF) | x8 | x2 F2 x4 | x8 | x4 G2 x2 | x8 | x6 G2 | x8 | x8 | x2 (GF) x4 | x8 | x4 E4 |] %12
V:3
 [G,B,]2 [E,B,]2 B,2 (ED) | [A,C]2 [C,A,]2 [E,G,]4 | [C,C]2 [D,B,]2 [E,B,]2 [C,A,]2 | %3
 [G,,G,]2 [A,,C]2 [B,,F,]4 | [D,F,]2 [B,,B,]2 [E,B,]2 [D,F,]2 | (G,=A,) B,2 [F,A,]4 | %6
 [=A,C]2 [F,A,]2 B,2 (ED) | [E,E]2 [F,C]2 [B,,D]4 | [G,D]2 [G,B,]2 G,2 ([A,C][G,B,]) | %9
 [F,A,]2 (B,A,) [C,G,]4 | [A,,A,]2 [G,,B,]2 [C,E,]2 (E,G,) | [A,,C]2 (B,A,) [E,G,]4 |] %12
V:4
 x4 B,2 G,2 | x8 | x8 | x8 | x8 | C,2 (D,E,) x4 | x4 B,2 G,2 | x8 | x4 G,2 x2 | x2 B,,2 x4 | %10
 x6 B,,2 | x2 B,,2 x4 |] %12

